assets/sonr-icons/bluetooth.svg

<svg xmlns="http://www.w3.org/2000/svg" width="24" height="24" fill="none" viewBox="0 0 24 24"><path fill="#000" d="M11 4.00101V9.83701L5.55901 6.17001C5.10101 5.86101 4.48001 5.98201 4.17101 6.44101C3.86201 6.90001 3.98301 7.52001 4.44201 7.82901L10.631 12L4.44201 16.171C3.98401 16.479 3.86301 17.101 4.17101 17.559C4.47901 18.017 5.10101 18.138 5.55901 17.83L11 14.163V19.999C11 21.56 12.708 22.519 14.041 21.707L19.042 18.658C20.28 17.903 20.321 16.119 19.118 15.308L14.209 12L19.118 8.69201C20.321 7.88101 20.281 6.09801 19.042 5.34201L14.041 2.29301C12.708 1.48101 11 2.44001 11 4.00101ZM13 13.597L17.988 16.958L13 19.999V13.597ZM13 10.403V4.00101L17.988 7.04201L13 10.403Z"/></svg>

<svg xmlns="http://www.w3.org/2000/svg" width="24" height="24" fill="none"><path fill="currentColor" d="M11 4.001v5.836L5.559 6.17a.999.999 0 1 0-1.117 1.659L10.631 12l-6.189 4.171a1 1 0 0 0 1.117 1.659L11 14.163v5.836c0 1.561 1.708 2.52 3.041 1.708l5.001-3.049a1.99 1.99 0 0 0 .076-3.35L14.209 12l4.909-3.308a1.99 1.99 0 0 0-.076-3.35l-5.001-3.049C12.708 1.481 11 2.44 11 4.001m2 9.596 4.988 3.361L13 19.999zm0-3.194V4.001l4.988 3.041z"/></svg>
